X: 528
T: Jöns Lars fars Bodapolska
O: Dalarna, Boda
R: Polska
Z: Jon Magnusson, 2009-01-29
M: 3/4
L: 1/8
K: A
(3 E2 A2 c2 e>g |(3:2:4 a2 a2 ba g>e |(3:2:4 d2 f2 ed e>c |(3:2:4 BG A2 c2 E2- |(3 E2 A2 c2 e>g|
(3:2:4 a2 a2 ba g>e |(3:2:4 d2 f2 ed e>c| B<G A4 ::
[K:Am]
(3c2 A2 c2 e>c |(3:2:5 c2 Bc BA B>B|(3 c2 A2 c2 e>c|(3:2:5 c2 Bc BA B2- |(3 B2 g2 ^f2 g>a|(3:2:4 g=f e2 d2 e2- |(3:2:7 e2 (3 ABc (3 dcB A>^G| A2 A4 :|
(:musicend:)


(:music:)
